svg/white/wtc.svg

<svg xmlns="http://www.w3.org/2000/svg" width="32" height="32" viewBox="0 0 32 32">
  <path fill="#FFF" d="M22.6656384,9.77081379 C22.9409804,10.2949782 23.4906607,10.65248 24.12384,10.65248 C25.0329449,10.65248 25.76992,9.91550488 25.76992,9.0064 C25.7690383,8.09760876 25.032631,7.36105836 24.12384,7.36 L24.12384,7.36032 C23.2147351,7.36032 22.47776,8.09729512 22.47776,9.0064 C22.47776,9.105853 22.4865798,9.20324601 22.50348,9.29783954 L19.8458005,10.2094118 C19.6836729,9.97947371 19.4160162,9.82928 19.11328,9.82928 C18.8988488,9.82928 18.7020172,9.90463271 18.5478201,10.0303031 L16.7963579,8.81993161 C16.8076392,8.7708935 16.8136,8.71982286 16.8136,8.66736 C16.8136,8.29304349 16.5101565,7.9896 16.13584,7.9896 C15.7615235,7.9896 15.45808,8.29304349 15.45808,8.66736 C15.45808,8.74217579 15.4702023,8.81416026 15.49259,8.88145639 L12.2310892,11.6228947 C12.2177316,11.621405 12.2041551,11.62064 12.1904,11.62064 C12.169365,11.62064 12.1487478,11.622429 12.1286923,11.6258631 L8.80884306,9.1511117 C8.81980185,9.10460037 8.8256,9.0560973 8.8256,9.00624 C8.82515924,8.65888098 8.54367902,8.37740076 8.19632,8.37696 C7.84877825,8.37696 7.56704,8.65869825 7.56704,9.00624 C7.56704,9.35378175 7.84877825,9.63552 8.19632,9.63552 C8.31051547,9.63552 8.41760646,9.60510207 8.50993261,9.55192656 L11.8298891,12.0267579 C11.8511928,12.2069546 12.0044744,12.34672 12.1904,12.34672 C12.3835203,12.34672 12.5414213,12.1959284 12.5527854,12.005663 L15.8143518,9.26416954 C15.9100139,9.31580918 16.019504,9.34512 16.13584,9.34512 C16.2750201,9.34512 16.4044018,9.30316783 16.5120295,9.23121904 L18.2633771,10.4415114 C18.2336818,10.5305926 18.2176,10.6258982 18.2176,10.72496 C18.2176,11.2196304 18.6186096,11.62064 19.11328,11.62064 C19.6079504,11.62064 20.00896,11.2196304 20.00896,10.72496 C20.00896,10.7106875 20.0086262,10.6964929 20.0079659,10.6823837 L22.6656384,9.77081379 Z M16,32 C7.163444,32 0,24.836556 0,16 C0,7.163444 7.163444,0 16,0 C24.836556,0 32,7.163444 32,16 C32,24.836556 24.836556,32 16,32 Z M25.88128,16.432 C24.96,16.192 24.00336,16.15168 23.05792,16.1008 C23.15136,15.81904 23.24992,15.53824 23.36192,15.26272 C23.392,15.17024 23.47904,15.12128 23.55952,15.07728 C24.004,14.84304 24.44544,14.6024 24.89232,14.37184 C25.00432,14.30352 25.14544,14.25664 25.2104,14.13456 C25.23648,13.94432 25.10736,13.78592 25.0184,13.632 C24.7216,13.17056 24.45152,12.69088 24.12464,12.2504 C24.01136,12.0904 23.78576,12.0936 23.62864,12.17872 C23.01088,12.46384 22.39552,12.75392 21.77744,13.03808 C21.6584,13.0952 21.53392,13.1456 21.42928,13.22784 C21.31264,13.32272 21.25696,13.46784 21.20656,13.60544 C20.9176,14.43616 20.60432,15.25824 20.30848,16.08656 C20.28576,16.14896 20.25472,16.23056 20.17488,16.23056 C19.53488,16.276 18.89872,16.35744 18.26208,16.43248 C17.8932267,15.44048 17.52384,14.4490133 17.15392,13.45808 C17.1016,13.28048 16.95584,13.1288 16.76032,13.13232 C16.24624,13.12512 15.73104,13.128 15.21648,13.12656 C15.092,13.13568 14.92992,13.11792 14.85392,13.2408 C14.7368,13.4488 14.69072,13.68624 14.60416,13.90688 C14.15728,15.06448 13.7216,16.22688 13.2888,17.38912 C12.92528,17.48208 12.56656,17.59872 12.19712,17.66896 C11.7208,16.38128 11.24096,15.09488 10.77424,13.80368 C10.69872,13.61872 10.6512,13.41728 10.53504,13.25184 C10.44112,13.13184 10.27904,13.1216 10.13808,13.12256 C9.5552,13.12592 8.97232,13.13472 8.38944,13.13856 C8.23504,13.14288 8.05584,13.13088 7.93632,13.248 C7.86752,13.49296 8.00992,13.72384 8.08592,13.94896 C8.63248,15.45296 9.2008,16.9496 9.7392,18.45664 C9.13408,18.6730667 8.53674667,18.9099733 7.9472,19.16736 C7.8032,19.23808 7.64704,19.28928 7.51632,19.38432 C7.17168,19.5136 6.85408,19.70528 6.53216,19.88192 C5.96048,20.22224 5.38336,20.59312 4.96848,21.12368 C4.77776,21.37968 4.6136,21.72736 4.74672,22.04592 C4.8672,22.37616 5.18976,22.56448 5.48992,22.70912 C5.93392,22.90512 6.40928,23.02096 6.88704,23.0984 C8.33216,23.30128 9.79808,23.2904 11.2504,23.18416 C11.3424,23.17792 11.43344,23.19632 11.52352,23.21616 C11.60352,23.47136 11.64992,23.75648 11.83328,23.96224 C11.92096,24.07024 12.06656,24.02864 12.17888,23.99328 C12.59488,23.85872 13.01392,23.73856 13.43184,23.61184 C13.76448,23.5416 13.8656,23.1824 13.97072,22.90656 C15.1496,22.7376 16.32272,22.52848 17.48544,22.2704 C19.58144,21.80272 21.6576,21.2144 23.64384,20.39152 C24.42784,20.05408 25.2032,19.6896 25.92016,19.22528 C26.39408,18.90768 26.87536,18.5592 27.17504,18.06288 C27.3552,17.77088 27.37792,17.34688 27.13104,17.08592 C26.80928,16.72272 26.32896,16.57312 25.88128,16.432 Z M9.9392,23.0336 C9.5528,23.0656 9.16464,23.0632 8.77728,23.05968 C8.1552,23.0224 7.52928,23.01712 6.91728,22.88368 C6.44096,22.80144 5.95056,22.68864 5.552,22.40096 C5.37136,22.26976 5.21072,22.06928 5.216,21.83552 C5.21408,21.5624 5.38064,21.32624 5.55008,21.12672 C5.93536,20.69776 6.42688,20.3856 6.9168,20.08976 C7.8586144,19.5693606 8.84419253,19.1324383 9.86224,18.784 C10.3594133,20.1218133 10.8533333,21.4610667 11.344,22.80176 C11.36,22.84768 11.376,22.89424 11.392,22.94064 L11.284,22.95664 C10.83728,23.008 10.388,23.02544 9.9392,23.0336 Z M12.68944,18.95056 C12.5476782,18.6354548 12.4233832,18.3127793 12.31712,17.984 C12.58672,17.90176 12.85792,17.82128 13.13424,17.76224 C12.99984,18.16336 12.85504,18.56128 12.68944,18.95056 Z M14.08144,22.61456 C14.53552,21.36752 15.008,20.12672 15.46704,18.88048 C15.63456,18.46608 15.76624,18.03808 15.94288,17.62704 C16.07088,17.85024 16.14864,18.09568 16.2416,18.3344 C16.6816,19.53792 17.13584,20.73712 17.57344,21.94208 C16.42016,22.21648 15.25488,22.44928 14.0808,22.61392 L14.08144,22.61456 Z M19.22768,18.97488 C18.93472,18.21584 18.63904,17.45712 18.3688,16.6904 C18.9608,16.59696 19.55632,16.5304 20.15232,16.47152 C19.86512,17.3128 19.53728,18.14064 19.22704,18.97424 L19.22768,18.97488 Z M26.79296,17.6736 C26.71696,17.98832 26.49568,18.24192 26.26496,18.4576 C25.72096,18.96112 25.06192,19.31744 24.4064,19.65344 C23.3797658,20.1532832 22.3170442,20.5753233 21.2272,20.916 C21.3527291,20.6621188 21.459365,20.3993262 21.54624,20.12976 C22.02256,18.8648 22.49216,17.5968 22.96464,16.3304 C23.75616,16.32944 24.55392,16.3584 25.3296,16.5304 C25.73968,16.62096 26.15792,16.74 26.4976,16.99664 C26.70176,17.14912 26.85328,17.41104 26.79232,17.67296 L26.79296,17.6736 Z M24.12384,8.42544 C24.3588164,8.42544 24.5706555,8.56698636 24.6605771,8.78407623 C24.7504986,9.00116611 24.7007942,9.25104736 24.5346408,9.41720076 C24.3684874,9.58335415 24.1186061,9.63305862 23.9015162,9.54313705 C23.6844264,9.45321548 23.54288,9.24137639 23.54288,9.0064 C23.54288,8.68554465 23.8029847,8.42544 24.12384,8.42544 Z"/>
</svg>

<svg xmlns="http://www.w3.org/2000/svg" width="32" height="32"><path fill="#FFF" d="M22.666 9.77a1.646 1.646 0 1 0 1.458-2.41 1.646 1.646 0 0 0-1.62 1.938l-2.658.911a.895.895 0 0 0-1.298-.179l-1.752-1.21a.68.68 0 0 0-.66-.83.678.678 0 0 0-.643.891l-3.262 2.742a.367.367 0 0 0-.102.003L8.809 9.15a.631.631 0 0 0-.613-.774.63.63 0 1 0 .314 1.175l3.32 2.475a.363.363 0 0 0 .723-.021l3.261-2.742a.675.675 0 0 0 .698-.033l1.751 1.21a.895.895 0 1 0 1.745.241l2.658-.911zM16 32C7.163 32 0 24.837 0 16S7.163 0 16 0s16 7.163 16 16-7.163 16-16 16zm9.881-15.568c-.921-.24-1.878-.28-2.823-.331.093-.282.192-.563.304-.838.03-.093.117-.142.198-.186.444-.234.885-.475 1.332-.705.112-.068.253-.115.318-.237.026-.19-.103-.35-.192-.503-.296-.461-.566-.941-.893-1.382-.114-.16-.34-.156-.496-.071-.618.285-1.233.575-1.852.86-.119.056-.243.107-.348.189-.116.095-.172.24-.222.377-.29.831-.603 1.653-.899 2.482-.022.062-.053.144-.133.144-.64.045-1.276.126-1.913.201l-1.108-2.974c-.052-.178-.198-.33-.394-.326-.514-.007-1.029-.004-1.544-.005-.124.009-.286-.01-.362.114-.117.208-.163.445-.25.666-.447 1.157-.882 2.32-1.315 3.482-.364.093-.722.21-1.092.28-.476-1.288-.956-2.574-1.423-3.865-.075-.185-.123-.387-.239-.552-.094-.12-.256-.13-.397-.13-.583.004-1.166.013-1.749.017-.154.004-.333-.008-.453.109-.068.245.074.476.15.701.546 1.504 1.115 3 1.653 4.508a28.28 28.28 0 0 0-1.792.71c-.144.071-.3.122-.43.217-.345.13-.663.321-.985.498-.572.34-1.149.711-1.564 1.242-.19.256-.354.603-.221.922.12.33.443.518.743.663.444.196.92.312 1.397.39 1.445.202 2.911.191 4.363.085a.97.97 0 0 1 .274.032c.08.255.126.54.31.746.087.108.233.067.345.031.416-.134.835-.254 1.253-.381.332-.07.434-.43.539-.705a46.97 46.97 0 0 0 3.514-.637c2.096-.467 4.173-1.056 6.159-1.878.784-.338 1.56-.702 2.276-1.167.474-.317.955-.666 1.255-1.162.18-.292.203-.716-.044-.977-.322-.363-.802-.513-1.25-.654zM9.94 23.034c-.386.032-.774.03-1.162.026-.622-.038-1.248-.043-1.86-.176-.476-.083-.966-.195-1.365-.483-.18-.131-.341-.332-.336-.565-.002-.274.165-.51.334-.71.385-.428.877-.74 1.367-1.036a18.43 18.43 0 0 1 2.945-1.306c.497 1.338.991 2.677 1.482 4.018l.048.139-.108.016c-.447.051-.896.068-1.345.077zm2.75-4.083a9.408 9.408 0 0 1-.372-.967c.27-.082.54-.163.817-.222-.134.401-.279.8-.445 1.189zm1.392 3.664c.455-1.247.927-2.488 1.386-3.735.168-.414.3-.842.476-1.253.128.223.206.469.299.707.44 1.204.894 2.403 1.331 3.608a37.766 37.766 0 0 1-3.492.672zm5.147-3.64c-.293-.76-.589-1.518-.86-2.285.593-.093 1.188-.16 1.784-.218-.287.84-.615 1.669-.925 2.502zm7.565-1.301c-.076.314-.297.568-.528.784-.544.503-1.203.86-1.859 1.195-1.026.5-2.089.922-3.179 1.263a5.76 5.76 0 0 0 .32-.786c.476-1.265.945-2.533 1.418-3.8.791 0 1.589.028 2.365.2.41.091.828.21 1.168.467.204.152.355.414.294.676h.001zm-2.67-9.249a.581.581 0 1 1 0 1.162.581.581 0 0 1 0-1.162z"/></svg>
